X:13
T:Bill Cheatham
M:2/4
K:G
L:1/16
|: "G" D2B2 B2(GA | BA)G(B AG)ED | "C" CEG(B c2)A(B | cB)c(d cB)AG |
"G" DEG(A B2)G(A | BA)G(B AG)ED | "C" (cB)cd (ef)ge |1 "D" d(BAB) "G" G2(GE) :|2 "D" dBA2 G2Bc ||
|: "G"dBdg "C" ece(g | "D" fg)af "G" g2(Bc) | dBdg "C" eceg | "G" d(BAG) "D" A2(Bc) |
"G" dBdg "C" ece(g | "D" fg)af "G" g2(ef | gf)g(d "C" ef)ge |1 "D" d(BAB) "G" G2(Bc) :|2 "D" d(BAB) "G" G2 |]

